icons/3.svg

<?xml version="1.0" encoding="UTF-8" standalone="no"?>
<svg width="24px" height="24px" viewBox="0 0 24 24" version="1.1" xmlns="http://www.w3.org/2000/svg" xmlns:xlink="http://www.w3.org/1999/xlink">
    <!-- Generator: Sketch 40.1 (33804) - http://www.bohemiancoding.com/sketch -->
    <title>3</title>
    <desc>Created with Sketch.</desc>
    <defs>
        <polygon id="path-1" points="0 0 18 0 18 18 0 18"></polygon>
    </defs>
    <g id="Page-1" stroke="none" stroke-width="1" fill="none" fill-rule="evenodd">
        <g id="3">
            <g id="Page-1" transform="translate(3.000000, 3.000000)">
                <mask id="mask-2" fill="white">
                    <use xlink:href="#path-1"></use>
                </mask>
                <g id="Clip-2"></g>
                <path d="M13,7.9941 C13,8.3591 12.902,8.7021 12.732,8.9971 C12.902,9.2921 13,9.6361 13,10.0061 L13,12.9941 C13,14.1021 12.356,15.0001 11.257,15.0001 L10.253,15.0001 L5,15.0001 L5,13.0001 L7.254,13.0001 L11,13.0001 L11,10.0001 L7,10.0001 L7,8.0001 L11,8.0001 L11,5.0001 L7.254,5.0001 L5,5.0001 L5,3.0001 L10.253,3.0001 L11.257,3.0001 C12.36,3.0001 13,3.8861 13,5.0061 L13,7.9941 Z M18,2.0001 C18,0.8951 17.105,0.0001 16,0.0001 L2,0.0001 C0.895,0.0001 0,0.8951 0,2.0001 L0,16.0001 C0,17.1041 0.895,18.0001 2,18.0001 L16,18.0001 C17.105,18.0001 18,17.1041 18,16.0001 L18,2.0001 Z" id="Fill-1" fill="#777777" mask="url(#mask-2)"></path>
            </g>
        </g>
    </g>
</svg>

<svg xmlns="http://www.w3.org/2000/svg" viewBox="0 0 24 24" xmlns:xlink="http://www.w3.org/1999/xlink">
  <defs>
    <path id="a" d="M0 0h18v18H0z"/>
  </defs>
  <g fill-rule="evenodd" transform="translate(3 3)">
    <mask id="b" fill="#fff">
      <use xlink:href="#a"/>
    </mask>
    <path d="M13 7.994c0 .365-.098.708-.268 1.003.17.295.268.64.268 1.01v2.987C13 14.102 12.356 15 11.257 15H5v-2h6v-3H7V8h4V5H5V3h6.257C12.36 3 13 3.886 13 5.006v2.988zM18 2c0-1.105-.895-2-2-2H2C.895 0 0 .895 0 2v14c0 1.104.895 2 2 2h14c1.105 0 2-.896 2-2V2z" mask="url(#b)"/>
  </g>
</svg>
